X:1
T:Title
%%score { ( 1 3 ) | ( 2 4 ) }
L:1/8
M:4/4
K:G
V:1 treble nm="Grand Piano"
V:3 treble 
V:2 bass 
V:4 bass 
V:1
 z4 z2 z[Q:1/4=100] [B,D] | [B,D]2 [B,G]2 [B,G]3 [B,A] | GFEF G2 z D | D2 A2 A3 B | AGFG A2 z A | %5
 B2 d2 d3 B |[M:7/8] [EA][G,EG][G,EG] [G,CE] [G,EG]2 z |[M:1/8] [G,CE] | %8
[M:4/4] [G,D]2 [G,B,D]2 [G,CE][A,CF][G,DG][EA] | [DB]2 [CA]2 [B,G]4 | %10
 [B,D]2 [B,G]2 [G,DG][G,DG][A,DF][B,DG] | A8 | D2 A2 AcBA | G8 | D2 G2 GGAB | [Ec]4 [Ge]4 | %16
 [Gd]2 [GB]2 AGAB |[M:7/8] [B,DG]-[B,DG]-[B,DG]- [B,DG]3 z |] %18
V:2
 z4 z2 z [G,,G,] | [G,,G,]2 [G,,G,]2 [G,,G,]3 [G,,G,] | %2
 [D,A,C][D,A,C][D,A,C][D,A,C] [G,B,]2 z [D,F,] | [D,F,]2 [D,F,D]2 [D,F,D]3 [D,G,D] | %4
 [D,CD][D,B,D][D,A,D][D,B,D] [D,F,D]2 z [D,F,D] | [G,D]2 [G,B,D]2 [G,B,D]3 [G,D] | %6
[M:7/8] [C,G,]C,C, C, C,2 z |[M:1/8] C, |[M:4/4] B,,2 G,,2 C,C,B,,[C,G,] | %9
 [D,G,]2 [D,F,]2 [G,,G,]4 | [G,,G,]2 [G,,G,]2 B,,B,,A,,G,, | [F,D]2 G,2 A,4 | %12
 [D,F,]2 [D,F,D]2 [D,F,D][D,A,D][D,G,D][D,F,D] | [B,D]2 C2 B,4 | %14
 [G,B,]2 [G,B,D]2 [G,B,][G,B,][G,C][G,D] | [C,G,]4 [C,C]4 | %16
 [D,B,]2 [D,D]2 [D,CD][D,B,D][D,CD][D,D] |[M:7/8] G,,-G,,-G,,- G,,3 z |] %18
V:3
 x8 | x8 | x8 | x8 | x8 | x8 |[M:7/8] x7 |[M:1/8] x |[M:4/4] x8 | x8 | x8 | z2 E2 F4 | x8 | %13
 z2 E2 D4 | x8 | x8 | x8 |[M:7/8] x7 |] %18
V:4
 x8 | x8 | x8 | x8 | x8 | x8 |[M:7/8] x7 |[M:1/8] x |[M:4/4] x8 | x8 | x8 | D,8 | x8 | G,8 | x8 | %15
 x8 | x8 |[M:7/8] x7 |] %18

